###############
#o    #       #
# ### # # #####
#   # # #     #
## ## # # #####
#  #  ### #   #
# #####   ### #
# #   # ###   #
#   #   # # ###
# #####   # # #
# #   #####   #
# # #     # # #
### # ### # # #
#   #   #   #x#
###############

###############
############# #
###############
###############
###############
###############
###############
####### #######
###############
###############
###############
###############
###############
# #############
###############

###############
# #     #     #
# # ###   ### #
# # # ##### # #
#   # #   # ###
### # # # #   #
# ### ### ### #
# # #     # # #
# # ### ### # #
#     #   #   #
# # # ##### # #
# # #   #   # #
### ### # ### #
#     #   #   #
###############

###############
# #############
###############
###############
###############
##### ### #####
###############
###############
###############
##### ### #####
###############
###############
###############
############# #
###############

###############
#   #   #     #
### # # ### # #
#     # #   ###
# ##### # ### #
# #   # # # # #
# ##### ### # #
# #     #   # #
### ##### ### #
#   #     #   #
### ### ### # #
# #   # #   # #
# ### ### # # #
#         # # #
###############