###############
#o      #######
####### #######
####### #######
###############
####### #######
####### #######
####### #######
####### #######
####### #######
####### #######
####### #######
###############
#######      x#
###############

###############
###############
###############
####### #######
####### #######
#     # #     #
# ### ### #####
#     ### ##  #
# ####### ### #
# #######     #
###############
####### #######
###############
####### #######
###############

###############
####### #######
####### #######
####### #######
###############
####### #######
###############
####### #######
####### #######
####### #######
###############
####### #######
###############
####### #######
###############

###############
####### #######
###############
###############
###############
#     # #     #
### ##### ### #
### ### # ### #
### #####     #
#     # # ### #
###############
###############
###############
####### #######
###############

###############
####### #######
###############
####### #######
####### #######
####### #######
####### #######
####### #######
###############
####### #######
###############
####### #######
####### #######
####### #######
###############

###############
####### #######
###############
####### #######
###############
#     ### ### #
# ### ###  #  #
#     ### # # #
# ####### ### #
# ##### # ### #
###############
####### #######
###############
###############
###############

###############
####### #######
###############
####### #######
###############
####### #######
####### #######
####### #######
####### #######
####### #######
###############
####### #######
####### #######
####### #######
###############

###############
###############
###############
###############
###############
# ### ###     #
# ## #### #####
#   #####   ###
# ## ## # #####
# ### ###     #
###############
###############
###############
####### #######
###############

###############
####### #######
####### #######
###############
####### #######
####### #######
####### #######
###############
####### #######
###############
####### #######
####### #######
####### #######
####### #######
###############

###############
####### #######
###############
###############
####### #######
#     ###     #
### ### # #####
### ### #     #
### ### ##### #
#     ###     #
####### #######
###############
###############
####### #######
###############

###############
####### #######
####### #######
####### #######
####### #######
###############
###############
###############
###############
###############
####### #######
###############
####### #######
####### #######
###############

###############
###############
###############
###############
####### #######
# ### # ### ###
#  ## # ### ###
# # # ##### ###
# ##  # #######
# ### # ### ###
####### #######
###############
###############
###############
###############

###############
####### #######
####### #######
####### #######
####### #######
###############
####### #######
####### #######
####### #######
###############
####### #######
####### #######
####### #######
####### #######
###############